flaticon/interaction/file-3.svg

<svg xmlns="http://www.w3.org/2000/svg" width="32" height="32" viewBox="0 0 24 24">
    <path d="M15 8.800781L5 8.800781C4.777344 8.800781 4.601562 8.980469 4.601562 9.199219 4.601562 9.421875 4.777344 9.601562 5 9.601562L15 9.601562C15.222656 9.601562 15.398438 9.421875 15.398438 9.199219 15.398438 8.980469 15.222656 8.800781 15 8.800781zM5 6.398438L9 6.398438C9.222656 6.398438 9.398438 6.222656 9.398438 6 9.398438 5.777344 9.222656 5.601562 9 5.601562L5 5.601562C4.777344 5.601562 4.601562 5.777344 4.601562 6 4.601562 6.222656 4.777344 6.398438 5 6.398438zM15 12L5 12C4.777344 12 4.601562 12.179688 4.601562 12.398438 4.601562 12.621094 4.777344 12.800781 5 12.800781L15 12.800781C15.222656 12.800781 15.398438 12.621094 15.398438 12.398438 15.398438 12.179688 15.222656 12 15 12zM13 15.199219L5 15.199219C4.777344 15.199219 4.601562 15.378906 4.601562 15.601562 4.601562 15.820312 4.777344 16 5 16L13 16C13.222656 16 13.398438 15.820312 13.398438 15.601562 13.398438 15.378906 13.222656 15.199219 13 15.199219zM11.800781 19.199219C12.019531 19.199219 12.199219 19.019531 12.199219 18.800781 12.199219 18.578125 12.019531 18.398438 11.800781 18.398438L5 18.398438C4.777344 18.398438 4.601562 18.578125 4.601562 18.800781 4.601562 19.019531 4.777344 19.199219 5 19.199219zM11.800781 19.199219"/>
    <path d="M 1.398438 0.800781 L 13 0.800781 L 13 6.398438 L 18.601562 6.398438 L 18.601562 12.398438 L 19.398438 12.398438 L 19.398438 5.835938 L 13.566406 0 L 0.601562 0 L 0.601562 24 L 13.398438 24 L 13.398438 23.199219 L 1.398438 23.199219 Z M 13.800781 1.367188 L 18.035156 5.601562 L 13.800781 5.601562 Z M 13.800781 1.367188"/>
    <path d="M 21.800781 16.800781 L 21.800781 16.398438 C 21.800781 14.855469 20.542969 13.601562 19 13.601562 C 17.457031 13.601562 16.199219 14.855469 16.199219 16.398438 L 16.199219 16.800781 L 14.601562 16.800781 L 14.601562 24 L 23.398438 24 L 23.398438 16.800781 Z M 17 16.398438 C 17 15.296875 17.898438 14.398438 19 14.398438 C 20.101562 14.398438 21 15.296875 21 16.398438 L 21 16.800781 L 17 16.800781 Z M 22.601562 23.199219 L 15.398438 23.199219 L 15.398438 17.601562 L 22.601562 17.601562 Z M 22.601562 23.199219"/>
    <path d="M 19 18.398438 C 18.117188 18.398438 17.398438 19.117188 17.398438 20 C 17.398438 20.742188 17.910156 21.363281 18.601562 21.542969 L 18.601562 22 C 18.601562 22.222656 18.777344 22.398438 19 22.398438 C 19.222656 22.398438 19.398438 22.222656 19.398438 22 L 19.398438 21.542969 C 20.089844 21.363281 20.601562 20.742188 20.601562 20 C 20.601562 19.117188 19.882812 18.398438 19 18.398438 Z M 19 20.800781 C 18.558594 20.800781 18.199219 20.441406 18.199219 20 C 18.199219 19.558594 18.558594 19.199219 19 19.199219 C 19.441406 19.199219 19.800781 19.558594 19.800781 20 C 19.800781 20.441406 19.441406 20.800781 19 20.800781 Z M 19 20.800781"/>
</svg>

<svg xmlns="http://www.w3.org/2000/svg" width="32" height="32" viewBox="0 0 24 24">
    <path d="M15 8.8H5a.398.398 0 0 0-.398.4c0 .222.175.402.398.402h10c.223 0 .398-.18.398-.403A.398.398 0 0 0 15 8.801zm0 0M5 6.398h4A.395.395 0 0 0 9.398 6 .395.395 0 0 0 9 5.602H5A.395.395 0 0 0 4.602 6c0 .223.175.398.398.398zm0 0M15 12H5a.398.398 0 0 0-.398.398c0 .223.175.403.398.403h10c.223 0 .398-.18.398-.403A.398.398 0 0 0 15 12zm0 0M13 15.2H5a.398.398 0 0 0-.398.402c0 .218.175.398.398.398h8c.223 0 .398-.18.398-.398a.398.398 0 0 0-.398-.403zm0 0M11.8 19.2a.4.4 0 0 0 0-.802H5a.398.398 0 0 0-.398.403c0 .219.175.398.398.398zm0 0"/>
    <path d="M1.398.8H13v5.598h5.602v6h.796V5.836L13.566 0H.602v24h12.796v-.8h-12zm12.403.567l4.234 4.235h-4.234zm0 0"/>
    <path d="M21.8 16.8v-.402a2.802 2.802 0 0 0-2.8-2.796 2.802 2.802 0 0 0-2.8 2.796v.403h-1.598V24h8.796v-7.2zm-4.8-.402c0-1.101.898-2 2-2 1.102 0 2 .899 2 2v.403h-4zm5.602 6.801h-7.204v-5.597h7.204zm0 0"/>
    <path d="M19 18.398c-.883 0-1.602.72-1.602 1.602 0 .742.512 1.363 1.204 1.543V22c0 .223.175.398.398.398a.395.395 0 0 0 .398-.398v-.457c.692-.18 1.204-.8 1.204-1.543 0-.883-.72-1.602-1.602-1.602zm0 2.403a.802.802 0 0 1 0-1.602.802.802 0 0 1 0 1.602zm0 0"/>
</svg>
